X:241
T:Patsy Campbell
R:Reel
O:Ireland
S:Music from Ireland Vol. 3
B:Music from Ireland Vol. 3
Z:Transcription, minor arr., chords:Mike Long
M:C|
L:1/8
K:D
"D"d2AG FGAB|"C"=c2AB cdec|"D"dcAG FGA2|\
"D"fa"A"ge "D"d2fe:|"D"fd~d2 fgaf|"C"e=c~c2 efge|
"D"fd~d2 fgaf|"A"edcB A3e|"D"fa2 fa4|"G"gbaf g2fg|\
"D"a2ag fgfe|"A"dede fafe|]
